dist/svg/import.svg

<!-- Generated by Trend Micro Style Portal -->
<svg version="1.1" xmlns="http://www.w3.org/2000/svg" width="16" height="16" viewBox="0 0 16 16">
  <title>import</title>
  <path fill="rgb(34,34,34)" d="M16 8v1c0 0-1-3-5-3h-3v2.5l-4-4 4-4v2.5h3c2.8 0 5 2.2 5 5zM14 14h-12v-12h2v-1h-2c-0.5 0-1 0.5-1 1v12c0 0.5 0.5 1 1 1h12c0.5 0 1-0.5 1-1v-4h-1v4z"></path>
</svg>

<svg width="16" height="16" viewBox="0 0 16 16" fill="rgb(34, 34, 34)" xmlns="http://www.w3.org/2000/svg"><title>import</title><path d="M16 8V9C16 9 15 6 11 6H8V8.5L4 4.5L8 0.5V3H11C13.8 3 16 5.2 16 8ZM14 14H2V2H4V1H2C1.5 1 1 1.5 1 2V14C1 14.5 1.5 15 2 15H14C14.5 15 15 14.5 15 14V10H14V14Z" fill="rgb(34, 34, 34)" fill-opacity="1.00"/></svg>
